!!!!SEGMENT: pl-wtm--iii-41-944-2_mlynarski-emil--trois-morceaux-pour-piano-op-5-no-2-nocturne.krn
!!!cenid: 18xx:4270
!!!COM: Młynarski, Emil
!!!COM-rismID: pe50043899
!!!CDT: 1870/07/18-1935/04/05
!!!CNT: Polish
!!!GTL: Trois Morceaux pour piano op. 5
!!!OTL: No. 2 Nocturne
!!!PDT: 1894
!!!AGN:
!!!YEC: Copyright 2022 Narodowy Instytut Fryderyka Chopina (https://polishscores.org)
!!!YEM: License CC-BY-4.0 (https://creativecommons.org/licenses/by/4.0)
!!!SMS-siglum: PL-Wtm
!!!SMS-shelfmark: III.41.944/2
!!!SMS-shelfwork: G
!!!SMS-variant:
!!!SMS-altvar:
!!!NIFC-rismSourceID: 1001152189
!!!NIFC-rismChildID: 1001152189
!!!NIFC-islandoraID: pl-wtm:22908
!!!URL-pdf-islandora: https://repozytorium.nifc.pl/islandora/object/pl-wtm:22908/datastream/PDF/view
!!!URL-scan: https://polish.musicsources.pl/pl/lokalizacje/galeria/druki-muzyczne/17786/1
!!!IIIF:
!!!ONB-nifc:
!!!AIN: 2 piano
!!!key:
**kern	**kern	**fing	**dynam
*part2	*part1	*	*
*staff2	*staff1	*	*
*I"Piano.	*I"Piano.	*	*
*I'pf	*I'pf	*	*
*ICklav	*ICklav	*	*
*Ipiano	*Ipiano	*	*
*clefF4	*clefG2	*	*
*k[b-e-a-]	*k[b-e-a-]	*	*
*E-:	*E-:	*	*
*M4/4	*M4/4	*	*
*met(c)	*met(c)	*	*
=1	=1	=1	=1
!	!LO:TX:a:i:t=espressivo	!	!
!	!LO:TX:a:B:t=Andante.	!	!
(4EE-/	2G:/ 2B-: 2e-: 2g:	.	p
4BB-/	.	.	.
4A-\	2c:/ 2d: 2f: 2cc:	.	.
4BB-/)	.	.	.
=2	=2	=2	=2
(4EE-/	2G:/ 2B-: 2e-: 2g:	.	.
4BB-/	.	.	.
4A-\	2c:/ 2d: 2f: 2b-:	.	.
4BB-/)	.	.	.
=3	=3	=3	=3
*	*^	*	*
(4EE-/	4G:/ 4B-: 4e-:/ 4g:	4ryy	.	.
4GG/	4e-/	4B-/	.	.
2FF/) 2BB-	2A-:/ 2B-: 2a-:	(4e-:\	.	.
.	.	4d\)	.	.
*	*v	*v	*	*
=4	=4	=4	=4
4EE-:/ 4BB-:	4G:/ 4B-: 4e-: 4g:	.	.
4CC:/ 4GG: 4C:	4E-:/ 4G: 4c: 4e-:	.	.
2BBB-::/ 2FF:: 2BB-::	2F::/ 2B-:: 2d:: 2f::	.	.
=5	=5	=5	=5
(4FF/	2A-:/ 2c: 2f: 2a-:	.	.
4C/	.	.	.
4B-\	2c:/ 2en: 2a-: 2cc:	.	.
4C/)	.	.	.
!!LO:LB:g=original	!	!
=6	=6	=6	=6
(4FF/	2A-:/ 2c: 2f: 2a-:	.	.
4C/	.	.	.
4B-\	2en:/ 2a-: 2dd-X:	.	.
4C/)	.	.	.
=7	=7	=7	=7
4FF/	4A-:/ 4c: 4f: 4a-:	.	.
4AA-:/ 4F:	4c:/ 4f: 4cc:	.	.
4BB-:\ 4A-:	4d:/ 4f: 4b-: 4dd:	.	.
4C:\ 4A-:	4e-:/ 4a-: 4b-: 4ee-:	.	.
=8	=8	=8	=8
*	*^	*	*
2D::\ 2A-:: 2B-::	2a-::/ 2b-::	((4g::\ 4gg::	.	<
.	.	4f\)) 4ff	.	.
4E-:\ 4B-: 4d-X:	2ryy	4g:\ 4dd-X: 4ee-: 4gg:	.	.
4F:\ 4B-: 4d-:	.	4a-:\ 4dd-: 4ee-: 4aa-:	.	.
=9	=9	=9	=9	=9
2G::\ 2d-X:: 2e-::	2dd-X::/ 2ee-::	((4cc::\ 4ccc::	.	mf >
.	.	4b-\)) 4bb-	.	.
[2A-\ 2e-	8r	2cc\	.	] p
.	(8ccc/L	.	.	.
.	8bb-/	.	.	.
.	8aa-/J	.	.	.
=10	=10	=10	=10	=10
*^	*	*	*	*
8dn/L	2A-\]	8.gg/L	[1b-	.	.
8c/	.	.	.	.	.
.	.	16ff/Jk	.	.	.
8d/	.	4ff/)	.	.	.
[8f/J	.	.	.	.	.
4f/]	[2G\ 2B-	8r	.	.	.
.	.	(8ee-/L	.	.	.
[4e-/	.	8ff/	.	.	.
.	.	8gg/J	.	.	.
!!LO:LB:g=original	!	!	!	!
=11	=11	=11	=11	=11	=11
8e-/L]	2G\]	4bb-/)	2b-\]	.	.
8B-/	.	.	.	.	.
8c/	.	4bb-/	.	.	.
8e-/J	.	.	.	.	.
[2F\ 2c 2e-	2ryy	8cc:/L	(4b-:\	.	.
.	.	(8aa-/	.	.	.
.	.	8gg/	[4a-\)	.	.
.	.	8ff/J	.	.	.
=12	=12	=12	=12	=12	=12
8B-/L	2F\]	8.ee-/L	2a-\]	.	.
8An/	.	.	.	.	.
.	.	16dd/Jk)	.	.	.
N[<8B-/	.	4dd/	.	.	.
8f/J	.	.	.	.	.
[2B-/N]	[2E-\	8r	[2g\	.	.
.	.	(8dd/L	.	.	.
.	.	8ee-/	.	.	.
.	.	8ff/J	.	.	.
=13	=13	=13	=13	=13	=13
8B-/L]	2E-\]	4gg/)	2g\]	.	.
8e-/	.	.	.	.	.
8d/	.	4gg/	.	.	.
8c/J	.	.	.	.	.
2F\ 2c	2ryy	8r	2g:\ 2a-: 2cc:	.	.
.	.	(8gg/L	.	.	.
.	.	8ff/	.	.	.
.	.	8ee-/J)	.	.	.
=14	=14	=14	=14	=14	=14
8F/L	2GG\	(8.ee-:/L	2f:\ 2g:	.	<
8G/	.	.	.	.	.
.	.	16dd/Jk)	.	.	.
8An/	.	4dd/	.	.	.
8Bn/J	.	.	.	.	.
2EE-/ 2E-	2ryy	8r	2c\ 2g	.	.
.	.	(8cc:/L	.	.	.
.	.	8dd/	.	.	.
.	.	8ee-/J	.	.	.
*v	*v	*	*	*	*
!!LO:LB:g=original	!	!	!
=15	=15	=15	=15	=15
2FF::/ 2F::	4cc::/)	2c::\ 2e-:: 2a-::	.	.
.	4cc/	.	.	.
2GG/ 2E- 2G	8r	2c\ 2g	.	.
.	(8cc/L	.	.	.
.	8dd/	.	.	.
.	8ee-/J	.	.	.
=16	=16	=16	=16	=16
2GG#X/ 2D 2F#X	4cc/)	2c\ 2f#X	.	.
.	4cc/	.	.	.
2AAn:/ 2D: 2F#:	4dd:/	2c:\ 2d: 2f#: 2cc:	.	.
.	[4dd/	.	.	.
=17	=17	=17	=17	=17
!	!	!	!	!LO:HP:t=dim.
1BBn 1Fn 1G	4g/ 4dd]	1d	.	>
.	2g/	.	.	.
.	[4g/	.	.	.
*	*v	*v	*	*
=18	=18	=18	=18
4r	2G:/ 2c: 2e-: 2g:]	.	p
(4CC/	.	.	.
4A-\	2c:/ 2d: 2f: 2cc:	.	.
4C/)	.	.	.
=19	=19	=19	=19
*	*^	*	*
4r	2B-:/ 2e-: 2g: 2b-:	2ryy	.	.
(4CC/	.	.	.	.
4A-\	2b-:/	(4c:\ 4e-:	.	.
4BB-/)	.	4d\) 4f	.	.
!!LO:LB:g=original	!	!	!
=20	=20	=20	=20	=20
4EE-/	4g/	4e-\	.	.
4GG/	4B-/ 4e-	4ryy	.	.
2FF/ 2BB-	2A-:/ 2B-: 2a-:	(>4e-:\	.	.
.	.	4d\)	.	.
*	*v	*v	*	*
=21	=21	=21	=21
4EE-:/ 4BB-:	4G:/ 4B-: 4e-: 4g:	.	<
4CC:/ 4GG: 4C:	4E-:/ 4G: 4c: 4e-:	.	.
2BBB-:/ 2FF: 2BB-:	2F:/ 2B-: 2d: 2f:	.	sf
=22	=22	=22	=22
(4FFF/ 4FF	2A-:/ 2c: 2f: 2a-:	.	p
4C/	.	.	.
4B-\	2c:/ 2en: 2a-: 2cc:	.	.
4C/)	.	.	.
=23	=23	=23	=23
(4FF/	2A-:/ 2c: 2f: 2a-:	.	.
4C/	.	.	.
.	(>8qee-X/	.	.
4B-\	2en:/) 2a-: 2dd-X:	.	.
4C/)	.	.	.
=24	=24	=24	=24
4FF/	4A-:/ 4c: 4f: 4a-:	.	.
4AA-:/ 4F:	4c:/ 4f: 4cc:	.	.
4BB-:\ 4A-:	2d:/ 2f: 2b-: 2dd:	.	.
[<4B-\	.	.	.
=25	=25	=25	=25
4B-\] 4a->	2g:/ 2b-: 2dd: 2gg:	.	.
4BB-/	.	.	.
4.EE-::/ 4.BB-:: 4.G::	4.e-::/ 4.ee-::	.	pp
!LO:TX:a:i:t=ten.	!	!	!
8DD/	8r	.	.
!!LO:PB:g=original	!	!
=26||	=26||	=26||	=26||
*M6/8	*M6/8	*	*
!	!LO:TX:a:B;t=Allegro molto.	!	!
16CC'\LL 16C	2.r	.	mf
(16G\	.	.	.
16c\	.	.	.
16e-\	.	.	.
16g\	.	.	.
16G\JJ)	.	.	.
(16a-\LL	.	.	.
16A-\	.	.	.
16c\	.	.	.
16e-\	.	.	.
16a-\	.	.	.
16A-\JJ)	.	.	.
=27	=27	=27	=27
(16b-\LL	2.r	.	.
16B-\	.	.	.
16c\	.	.	.
16e-\	.	.	.
16b-\	.	.	.
16B-\JJ)	.	.	.
(16a-\LL	.	.	.
16A-\	.	.	.
16c\	.	.	.
16e-\	.	.	.
16a-\	.	.	.
16A-\JJ)	.	.	.
=28	=28	=28	=28
16CC'\LL 16C	(8gg\L	.	.
(16G\	.	.	.
16c\	8cc\	.	.
16e-\	.	.	.
16g\	8ee-\J	.	.
16G\JJ)	.	.	.
(16a-\LL	4cc\	.	.
16A-\	.	.	.
16c\	.	.	.
16e-\	.	.	.
16a-\	8cc\)	.	.
16A-\JJ)	.	.	.
!!LO:LB:g=original	!	!
=29	=29	=29	=29
(16b-\LL	(8gg\L	.	.
16B-\	.	.	.
16c\	8cc\	.	.
16e-\	.	.	.
16b-\	8ee-\J	.	.
16B-\JJ)	.	.	.
(16a-\LL	4cc\	.	.
16A-\	.	.	.
16c\	.	.	.
16e-\	.	.	.
16a-\	8cc\)	.	.
16A-\JJ)	.	.	.
=30	=30	=30	=30
*	*^	*	*
[2.CC/ [2.C	(4ee-/	16ee-\LL	.	.
.	.	16d\	.	.
.	.	16e-\	.	.
.	.	16g\	.	.
.	8cc/)	16cc\	.	.
.	.	16c\JJ	.	.
.	(4cc/	16cc\LL	.	.
.	.	16c\	.	.
.	.	16d\	.	.
.	.	16f\	.	.
.	8a-/)	16a-\	.	.
.	.	16c\JJ	.	.
=31	=31	=31	=31	=31
!	!	!LO:N:vis=2.	!	!
2.CC/] 2.C]	2.g/	16g\LL	.	.
.	.	16G\	.	.
.	.	16c\	.	.
.	.	16d\	.	.
.	.	16e-\	.	.
.	.	16G\JJ	.	.
.	.	16Bn\LL	.	.
.	.	16G\	.	.
.	.	16B\	.	.
.	.	16d\	.	.
.	.	16B\	.	.
.	.	16G\JJ	.	.
*	*v	*v	*	*
!!LO:LB:g=original	!	!
=32	=32	=32	=32
16CC'\LL 16C	(8gg\L	.	.
(16G\	.	.	.
16c\	8cc\	.	.
16e-\	.	.	.
16g\	8ee-\J	.	.
16G\JJ)	.	.	.
(16a-\LL	4cc\	.	.
16A-\	.	.	.
16c\	.	.	.
16e-\	.	.	.
16a-\	8cc\)	.	.
16A-\JJ)	.	.	.
=33	=33	=33	=33
*	*^	*	*
(16a-\LL	(8gg\L	4.ryy	.	.
16B-\	.	.	.	.
16d\	8b-\	.	.	.
16a-\	.	.	.	.
16d\	8ff\J	.	.	.
16B-\JJ)	.	.	.	.
16e-\ 16g	4ee-/	16ee-\LL	.	.
16r	.	16e-\	.	.
8r	.	16g\	.	.
.	.	16b-\	.	.
8r	8ee-/)	16ee-\	.	.
.	.	16e-\JJ	.	.
=34	=34	=34	=34	=34
(4EE-/	(4ee-/	16ee-\LL	.	.
.	.	16d\	.	.
.	.	16e-\	.	.
.	.	16a-\	.	.
8E-\)	8cc/)	16cc\	.	.
.	.	16c\JJ	.	.
(4A-\	(4cc/	16cc\LL	.	.
.	.	16Bn\	.	.
.	.	16c\	.	.
.	.	16e-\	.	.
8E-\)	8a-/)	16a-\	.	.
.	.	16A-\JJ	.	.
!!LO:LB:g=original	!	!	!
=35	=35	=35	=35	=35
2.EE-/	2.g/	(>16g\LL	.	.
.	.	16G\	.	.
.	.	16B-\	.	.
.	.	16e-\	.	.
.	.	16g\)	5	.
.	.	(>16g\JJ	1	.
.	.	16gg\LL	.	.
.	.	16ee-\	.	.
.	.	16b-\	.	.
.	.	16g\	.	.
.	.	16e-\	.	.
.	.	16B-\JJ)	.	.
=36	=36	=36	=36	=36
(>8qFF/	.	.	.	.
(>8G\L)	(8g/L	16c\LL	.	.
.	.	16An\	.	.
8E-\	8e-/	16c\	.	.
.	.	16A\	.	.
8G\J	8g/J	16c\	.	.
.	.	16A\JJ	.	.
8F\L	8an/L	16e-\LL	.	.
.	.	16c\	.	.
8G\	8b-/	16e-\	.	.
.	.	16c\	.	.
8F\J)	8a/J)	16e-\	.	.
.	.	16c\JJ	.	.
=37	=37	=37	=37	=37
(4An\	(4g/	16g\LL	.	.
.	.	16Bn\	.	.
.	.	16c\	.	.
.	.	16e-\	.	.
8FF/)	8g/)	16g\	.	.
.	.	16cn\JJ	.	.
(4A-X\	(4f/	16f\LL	.	.
.	.	16An\	.	.
.	.	16B-X\	.	.
.	.	16d\	.	.
8BB-/)	8f/)	16f\	.	.
.	.	16B-\JJ	.	.
!!LO:LB:g=original	!	!	!	!
=38	=38	=38	=38	=38
(4G\	(4b-/	16g\LL	.	.
.	.	16d\	.	.
.	.	16e-\	.	.
.	.	16g\	.	.
8BB-/)	8b-/)	16b-\	.	.
.	.	16e-\JJ	.	.
(4F#X\ 4An	(4cc/	16cc\LL	.	.
.	.	16d\	.	.
.	.	16e-\	.	.
.	.	16f#X\	.	.
8BB-/)	8cc/)	16cc\	.	.
.	.	16e-\JJ	.	.
=39	=39	=39	=39	=39
2.G\ 2.B-	2.b-/	(>16b-\LL	.	.
.	.	16e-\	.	.
.	.	16g\	.	.
.	.	16b-\	.	.
.	.	16ee-\)	5	.
.	.	(>16ee-\JJ	1	.
.	.	16eee-\LL	.	.
.	.	16bb-\	.	.
.	.	16gg\	.	.
.	.	16ee-\	.	.
.	.	16b-\	.	.
.	.	16g\JJ)	.	.
=40	=40	=40	=40	=40
(>8qC/	.	.	.	.
(>8B-\L)	(8b-/L	(>16en\LL	.	.
.	.	16c\)	.	.
8G\	8g/	(>16e\	.	.
.	.	16c\)	.	.
8B-\J	8b-/J	(>16e\	.	.
.	.	16c\JJ)	.	.
8f\L	8dd-X/L	(>16b-\LL	.	.
.	.	16g\)	.	.
8d-X\	8ee-X/	(>16b-\	.	.
.	.	16g\)	.	.
8f\J)	8dd-/J)	(>16b-\	.	.
.	.	16g\JJ)	.	.
!!LO:LB:g=original	!	!	!	!
=41	=41	=41	=41	=41
(4B-\	(4dd-X/	16dd-\LL	.	.
.	.	16en\	.	.
.	.	16f\	.	.
.	.	16g\	.	.
8C/)	8dd-/)	16dd-\	.	.
.	.	16e-y\JJ	.	.
(4B-\	(4cc/	16cc\LL	.	.
.	.	16e-\	.	.
.	.	16f\	.	.
.	.	16g\	.	.
8C/)	8cc/)	16cc\	.	.
.	.	16e-\JJ	.	.
=42	=42	=42	=42	=42
4A-\ 4c	(4ff/	16ff\LL	.	.
.	.	16f\	.	.
.	.	16a-\	.	.
.	.	16cc\	.	.
8A-\ 8c	8ff/)	16ff\	.	.
.	.	16f\JJ	.	.
4G\ 4c	(4ee-/	16ee-\LL	.	.
.	.	16e-\	.	.
.	.	16g\	.	.
.	.	16cc\	.	.
8G\ 8c	8ee-/)	16ee-\	.	.
.	.	16e-\JJ	.	.
=43	=43	=43	=43	=43
2.F\ 2.c	2.dd/	(>16dd\LL	.	.
.	.	16d\	.	.
.	.	16a-\	.	.
.	.	16cc\	.	.
.	.	16dd\)	5	.
.	.	(>16dd\JJ	1	.
.	.	16ddd\LL	.	.
.	.	16ccc\	.	.
.	.	16aa-\	.	.
.	.	16dd\	.	.
.	.	16cc\	.	.
.	.	16a-\JJ)	.	.
!!LO:PB:g=original	!	!	!	!
=44	=44	=44	=44	=44
4G\ 4c	(4ee-/	16ee-\LL	.	.
.	.	16e-\	.	.
.	.	16g\	.	.
.	.	16cc\	.	.
8G\ 8c	8ee-/)	16ee-\	.	.
.	.	16e-\JJ	.	.
4A-\ 4c	(4ff/	16ff\LL	.	.
.	.	16f\	.	.
.	.	16cc\	.	<
.	.	16dd\	.	.
8A-\ 8c	8ff/)	16ff\	.	.
.	.	16f\JJ	.	.
=45	=45	=45	=45	=45
2.Bn\ 2.d	2.gg/	(>16gg\LL	.	f
.	.	16g\	.	.
.	.	16dd\	.	.
.	.	16ff\	.	.
.	.	16gg\)	.	.
.	.	(>16gg\JJ	.	.
.	.	16ggg\LL	.	.
.	.	16fff\	.	.
.	.	16ddd\	.	.
.	.	16gg\	.	.
.	.	16ff\	.	.
.	.	16dd\JJ)	.	.
*clefG2	*	*	*	*
=46	=46	=46	=46	=46
(4c/ 4en 4b-	(8gg/L	16cc\LL	.	mp
.	.	16g\	.	.
.	8een/	16cc\	.	.
.	.	16g\	.	.
8c'/) 8e 8b-	8gg/J)	16cc\	.	.
.	.	16g\JJ	.	.
(4c/ 4f 4b-	(8aa-/L	16ff\LL	.	.
.	.	16dd-X\	.	.
.	8bb-/	16ff\	.	.
.	.	16dd-\	.	.
8c'/) 8f 8b-	8aa-/J)	16ff\	.	.
.	.	16dd-\JJ	.	.
*	*v	*v	*	*
!!LO:LB:g=original	!	!	!
=47	=47	=47	=47
2.c/ 2.en 2.b-	(16gg\LL	.	.
.	16g\	.	.
.	16cc\	.	.
.	16een\	.	.
.	16gg\)	.	.
.	(16gg\JJ	.	.
.	16ggg\LL	.	.
.	16eeen\	.	.
.	16ccc\	.	.
.	16gg\	.	.
.	16ee\	.	.
.	16cc\JJ)	.	.
=48	=48	=48	=48
*	*^	*	*
(4en/ 4b-	(8bb-/L	16gg\LL	.	<
.	.	16cc\	.	.
.	8aan/	16gg\	.	.
.	.	16cc\	.	.
8e'/) 8b-	8bb-/J)	16gg\	.	.
.	.	16cc\JJ	.	.
(4f/ 4b- 4dd-X	(8ddd-X/L	16bb-\LL	.	.
.	.	16gg\	.	.
.	8eee-/	16bb-\	.	.
.	.	16gg\	.	.
8f'/) 8b- 8dd-	8ddd-/J)	16bb-\	.	.
.	.	16gg\JJ	.	.
*	*v	*v	*	*
=49	=49	=49	=49
2.en/ 2.b-	(16ccc\LL	.	sf
.	16cc\	.	.
.	16gg\	.	.
.	16bb-\	.	.
.	16ccc\)	.	.
!	!	!	!LO:HP:t=dim. e rit.
.	(16ccc\JJ	.	>
*	*8va	*	*
.	16cccc\LL	.	.
.	16bbb-\	.	.
.	16ggg\	.	.
.	16ccc\	.	.
*	*X8va	*	*
.	16bb-\	.	.
.	16gg\JJ)	.	.
!!LO:LB:g=original	!	!	!
=50	=50	=50	=50
*	*^	*	*
!	!LO:TX:b:i:t=a tempo	!	!	!
(4e-X/ 4b-	8bb-/L	16gg-X\LL	.	pp
.	.	16cc\	.	.
.	8aan/	16gg-\	.	.
.	.	16cc\	.	.
8e-'/) 8b-	8bb-/J	16gg-\	.	.
.	.	16cc\JJ	.	.
(4e-/ 4an	8ccc/L	16gg-\LL	.	.
.	.	16cc\	.	.
.	8ddd-X/	16gg-\	.	.
.	.	16cc\	.	.
8e-'/) 8a	8ccc/J	16gg-\	.	.
.	.	16cc\JJ	.	.
*	*v	*v	*	*
=51	=51	=51	=51
2.A-X:/ 2.e-: 2.g-X: 2.b-:	16cc:\LL 16gg-X: 16bb-:	.	.
.	(16cc\	.	.
.	16ggn\	.	.
.	16bb-\	.	.
.	16ccc\)	.	.
*	*8va	*	*
.	(16cccc\JJ	.	.
.	16bbb-\LL	.	.
.	16ggg\	.	.
.	16ccc\	.	.
*	*X8va	*	*
.	16bb-\	.	.
.	16gg\	.	.
.	16cc\JJ)	.	.
=52	=52	=52	=52
*^	*^	*	*
(<8f/L	2.A-\	(8aa-/L	(>16dd-X\LL	.	.
.	.	.	16a-\)	.	.
8en/	.	8ggn/	(>16dd-\	.	.
.	.	.	16a-\)	.	.
8f/J	.	8aa-/J	(>16dd-\	.	.
.	.	.	16a-\JJ)	.	.
8d-X/L	.	8ff/L	(>16ff\LL	.	.
.	.	.	16a-\)	.	.
8e-X/	.	8gg-X/	(>16gg-\	.	.
.	.	.	16a-\)	.	.
8f/J)	.	8aa-/J)	(>16dd-\	.	.
.	.	.	16a-\JJ)	.	.
*v	*v	*	*	*	*
*	*v	*v	*	*
!!LO:LB:g=original	!	!	!
=53	=53	=53	=53
2.A-/ 2.c	(16ee-\LL 16aa-	.	.
.	16a-\	.	.
.	16ee-\	.	.
.	16aa-\)	5	.
.	(16aa-\	1	.
.	16eee-\JJ	.	.
.	16aaa-\LL	.	.
.	16eee-\	.	.
.	16aa-\)	1	.
.	(16aa-\	5	.
.	16ee-\	.	.
.	16a-\JJ)	.	.
=54	=54	=54	=54
(8qA-/	.	.	.
*	*^	*	*
(4g-X/) 4b-	(8bb-/L	(>16gg-X\LL	.	.
.	.	16cc\)	.	.
.	8aan/	(>16gg-\	.	.
.	.	16cc\)	.	.
8g-'/) 8b-	8bb-/J	(>16gg-\	.	.
.	.	16cc\JJ)	.	.
!	!LO:TX:b:i:t=poco rit.	!	!	!
(8qA-/	.	.	.	.
(4g-/) 4b-	8ccc/L	16ccc\KL	.	.
.	.	8gg-\ 8bb-	.	.
.	8fff/	.	.	.
.	.	8gg-\ 8bb-	.	.
8g-/) 8b-	8ccc/J)	.	.	.
.	.	16gg-\Jk 16bb-	.	.
*	*v	*v	*	*
=55	=55	=55	=55
!	!LO:TX:b:i:t=a tempo	!	!
2.A-/ 2.g-X 2.b-	16cc\LL 16gg-X 16bb-	.	.
.	(16cc\	.	.
.	16gg-\	.	.
.	16bb-\	.	.
.	16ccc\)	.	.
*	*8va	*	*
.	(16cccc\JJ	.	.
.	16bbb-\LL	.	.
.	16ggg-\	.	.
.	16ccc\	.	.
*	*X8va	*	*
.	16bb-\	.	.
.	16gg-\	.	.
.	16cc\JJ)	.	.
=56	=56	=56	=56
*^	*^	*	*
(<8f/L	2.A-\	(8aa-/L	(>16dd-X\LL	.	.
.	.	.	16a-\)	.	.
8en/	.	8ggn/	(>16dd-\	.	.
.	.	.	16a-\)	.	.
8f/J	.	8aa-/J	(>16dd-\	.	.
.	.	.	16a-\JJ)	.	.
8d-X/L	.	8ff/L	(>16ff\LL	.	.
.	.	.	16a-\)	.	.
8B-/	.	8dd-/	(>16dd-\	.	.
.	.	.	16a-\)	.	.
8d-/J)	.	8ff/J)	(>16ff\	.	.
.	.	.	16a-\JJ)	.	.
*v	*v	*	*	*	*
*	*v	*v	*	*
=57	=57	=57	=57
2.A-/ 2.c	(16aa-\LL	.	.
.	16a-\	.	.
.	16ee-\	.	.
.	16aa-\)	5	.
.	(16aa-\	1	.
.	16eee-\JJ	.	.
.	16aaa-\LL	.	.
.	16ggg\	.	.
.	16aa-\)	1	.
.	(16aa-\	5	.
.	16ee-\	.	.
.	16cc\JJ)	.	.
=58	=58	=58	=58
*^	*^	*	*
(<8e-/L	2.A-\	(8cc/L	(>16cc\LL	.	p
.	.	.	16f#X\)	.	.
8dn/	.	8bn/	(>16b\	.	.
.	.	.	16f#\)	.	.
8e-/J	.	8cc/J	(>16cc\	.	.
.	.	.	16f#\JJ)	.	.
8c/L	.	8ee-/L	(>16ee-\LL	.	.
.	.	.	16f#\)	.	.
8d/	.	8dd/	(>16dd\	.	.
.	.	.	16f#\)	.	.
8e-/J)	.	8cc/J)	(>16cc\	.	.
.	.	.	16f#\JJ)	.	.
*v	*v	*	*	*	*
*	*v	*v	*	*
!!LO:LB:g=original	!	!	!
=59	=59	=59	=59
8c'/L	8cc'\L 8ccc	.	mp
8Bn'/	8bn'\ 8bbn	.	.
8c'/J	8cc'\J 8ccc	.	.
8e-'/L	8ee-'\L 8eee-	.	.
8d'/	8dd'\ 8ddd	.	.
8c'/J	8cc'\J 8ccc	.	.
=60	=60	=60	=60
*^	*^	*	*
(<8e-/L	2.A-\	(8cc/L	(>16cc\LL	.	f
.	.	.	16f#X\)	.	.
8dn/	.	8bn/	(>16b\	.	.
.	.	.	16f#\)	.	.
8e-/J	.	8cc/J	(>16cc\	.	.
.	.	.	16f#\JJ)	.	.
4c/	.	8ff#X/L	(>16ff#\LL	.	.
.	.	.	16f#\)	.	.
.	.	8ee-/	(>16ee-\	.	.
.	.	.	16f#\)	.	.
8e-/)	.	8cc/J)	(>16cc\	.	.
.	.	.	16f#\JJ)	.	.
*v	*v	*	*	*	*
*	*v	*v	*	*
=61	=61	=61	=61
8c'/L	8cc'\L 8ccc	.	ff
8Bn'/	8bn'\ 8bbn	.	.
8c'/J	8cc'\J 8ccc	.	.
8f#X'/L	8ff#X'\L 8fff#X	.	.
8e-'/	8ee-'\ 8eee-	.	.
8c'/J	8cc'\J 8ccc	.	.
*clefF4	*	*	*
!!LO:PB:g=original	!	!	!
=62	=62	=62	=62
*^	*	*	*
8GG/L	2.GGG\ 2.GG	8gg/L 8ccc 8eee- 8ggg	.	fff
8e->\ 8ee->	.	8.ccc/	.	.
8d>\J 8dd>	.	.	.	.
.	.	16ee-/Jk 16eee-	.	.
8c>\L 8cc>	.	4ccc/	.	.
8B->\ 8b->	.	.	.	.
8A->\J 8a->	.	8cc/ 8ccc	.	.
*v	*v	*	*	*
=63	=63	=63	=63
8G\L 8g	(4ee-\ 4gg 4ccc 4eee-	.	.
8F\ 8f	.	.	.
8E-\J 8e-	8cc'\) 8ccc	.	.
8A-\L 8a-	(4cc\ 4ee- 4aa- 4ccc	.	.
8G\ 8g	.	.	.
8F\J 8f	8a-'\) 8cc 8ff 8aa-	.	.
=64	=64	=64	=64
*^	*	*	*
8GG/L	2.GGG\ 2.GG	8g\L 8cc 8ee- 8gg	.	.
8E-/ 8e-	.	8.cc\	.	.
8D/J 8d	.	.	.	.
.	.	16e-\Jk 16ee-	.	.
8C/L 8c	.	4cc\	.	.
8BB-/ 8B-	.	.	.	.
8AA-/J 8A-	.	8c/ 8cc	.	.
*v	*v	*	*	*
=65	=65	=65	=65
8GG/L 8G	(4e-/ 4g 4cc 4ee-	.	.
8FF/ 8F	.	.	.
8EE-/J 8E-	8c'/) 8cc	.	.
8AA-/L 8A-	(4c/ 4e- 4a- 4cc	.	.
8GG/ 8G	.	.	.
8FF/J 8F	8A-'/) 8c 8f 8a-	.	.
!!LO:LB:g=original	!	!	!
=66	=66	=66	=66
8GGG/L 8GG	2.c/ 2.e- 2.g	.	.
8AA-^/ 8A-	.	.	.
8GG^/J 8G	.	.	.
8EE-^/L 8E-	.	.	.
8DD^/ 8D	.	.	.
8CC^/J 8C	.	.	.
=67	=67	=67	=67
!	!LO:TX:b:i:t=rit.	!	!
8BBB-^/L 8BB-	2.Bn/ 2.d 2.g	.	.
8AA-^/ 8A-	.	.	.
8GG^/J 8G	.	.	.
8FF^/L 8F	.	.	.
8EE-^/ 8E-	.	.	.
8DD^/J 8D	.	.	.
=68	=68	=68	=68
!	!LO:TX:b:i:t=a tempo	!	!
16CCC'\LL 16CC	(8gg\L	.	mf
(16G\	.	.	.
16c\	8cc\	.	.
16e-\	.	.	.
16g\	8ee-\J)	.	.
16G\JJ)	.	.	.
(16a-\LL	(4cc\	.	.
16A-\	.	.	.
16c\	.	.	.
16e-\	.	.	.
16a-\	8cc'\)	.	.
16A-\JJ)	.	.	.
=69	=69	=69	=69
(16b-\LL	(8gg\L	.	.
16B-\	.	.	.
16c\	8cc\	.	.
16e-\	.	.	.
16b-\	8ee-\J)	.	.
16B-\JJ)	.	.	.
(16a-\LL	(4cc\	.	.
16A-\	.	.	.
16c\	.	.	.
16e-\	.	.	.
16a-\	8cc'\)	.	.
16A-\JJ)	.	.	.
!!LO:LB:g=original	!	!	!
=70	=70	=70	=70
*	*^	*	*
2.CC/ 2.C	(4ee-/	16ee-\LL	.	.
.	.	16d\	.	.
.	.	16e-\	.	.
.	.	16g\	.	.
.	8cc/)	16cc\	.	.
.	.	16c\JJ	.	.
.	(4cc/	16cc\LL	.	.
.	.	16c\	.	.
.	.	16d\	.	.
.	.	16f\	.	.
.	8a-/)	16a-\	.	.
.	.	16c\JJ	.	.
=71	=71	=71	=71	=71
4r	2.g/	4r	.	.
8r	.	8r	.	.
[4.CC/ [4.C	.	4.G\ 4.c 4.e-	.	.
=72	=72	=72	=72	=72
2.CC/] 2.C]	(4ee-/	16ee-\LL	.	.
.	.	16d\	.	.
.	.	16e-\	.	.
.	.	16g\	.	.
!	!	!	!	!LO:HP:t=dim.
.	8cc/)	16cc\	.	>
.	.	16c\JJ	.	.
.	(4cc/	16cc\LL	.	.
.	.	16c\	.	.
.	.	16d\	.	.
.	.	16f\	.	.
.	8a-/)	16a-\	.	.
.	.	16c\JJ	.	.
=73	=73	=73	=73	=73
4r	[2.g/	4r	.	p
8r	.	8r	.	.
4.CC/ 4.C	.	4.G\ 4.c 4.e-	.	.
*	*v	*v	*	*
!!LO:LB:g=original	!	!	!
=74	=74	=74	=74
2.r	4g/]	.	.
.	(8f/	.	.
.	8e-/L	.	.
.	8d/	.	.
.	8c/J	.	.
=75	=75	=75	=75
2.r	[2.g/)	.	.
=76	=76	=76	=76
!	!LO:TX:b:t=cresc._:dur=6e:ext=ud:problem:text with extention lines	!	!
2.r	8g/L]	.	<
.	(8f/	.	.
.	8e-/J	.	.
.	8d/L	.	.
.	8c/	.	.
.	8Bn/J	.	[[
=77	=77	=77	=77
2.r	[2.g/)	.	sf >
=78	=78	=78	=78
2.r	8g/L]	.	.
.	(8f/	.	.
!	!LO:TX:i:b:t=rit.	!	!
.	8e-/J	.	.
.	8d/L	.	.
.	8c/	.	.
.	8B-X/J)	.	]]
!!LO:LB:g=original	!	!	!
=79||	=79||	=79||	=79||
*M4/4	*M4/4	*	*
*met(c)	*met(c)	*	*
*	*^	*	*
!	!LO:TX:a:i:t=espressivo	!	!	!
!	!LO:TX:a:B:t=Andante.	!	!	!
4r	(2g/	4r	.	p
4EE-/ 4BB-	.	4G\ 4B- 4e-	.	.
4r	2cc/)	4r	.	.
4BB-\ 4A-	.	4c\ 4d 4f	.	.
=80	=80	=80	=80	=80
4r	(2g/	4r	.	.
4EE-/ 4BB-	.	4G\ 4B- 4e-	.	.
4r	2b-/)	4r	.	.
4BB-\ 4A-	.	4c\ 4d 4f	.	.
=81	=81	=81	=81	=81
4r	(4g/	4r	.	.
4GG/ 4E-	4e-/	4B-\ 4e-	.	.
4r	2a-/)	4r	.	.
4FF/ 4BB-	.	4A-\ 4B- 4d	.	.
=82	=82	=82	=82	=82
4r	(4g/	4r	.	.
4CC/ 4C	4e-/	4G\ 4c	.	.
4r	2f/)	4r	.	.
4BBB-/ 4BB-	.	4F\ 4B- 4d	.	.
=83	=83	=83	=83	=83
4r	(2a-/	4r	.	.
4FFF/ 4FF	.	4A-\ 4c 4f	.	.
4r	2cc/)	4r	.	.
4C\ 4B-	.	4c\ 4en 4a-	.	.
!!LO:PB:g=original	!	!	!	!
=84	=84	=84	=84	=84
4r	2a-/	4r	.	.
4FF/ 4C	.	4A-\ 4c 4f	.	.
4r	2dd-X/	4r	.	.
4C\ 4B-	.	4en\ 4a-	.	.
=85	=85	=85	=85	=85
4r	4a-/	4r	.	.
4AA-::/ 4F::	4cc::/	4c::\ 4f::	.	.
4BB-::\ 4A-::	4ddn::/	4d::\ 4f:: 4b-::	.	.
4C::\ 4A-::	4ee-::/	4e-::\ 4a-:: 4b-::	.	.
=86	=86	=86	=86	=86
2D\ 2A- 2B-	2a-:/ 2b-:	((4g:\ 4gg:	.	.
.	.	4f\)) 4ff	.	.
4E-:\ 4B-:: 4d-X::	2ryy	4g::\ 4dd-X:: 4ee-:: 4gg::	.	.
4F::\ 4B-:: 4d-::	.	4a-::\ 4dd-:: 4ee-:: 4aa-::	.	.
=87	=87	=87	=87	=87
2G::\ 2d-X:: 2e-::	2dd-X::/ 2ee-::	((4cc-X::\ 4ccc::	.	mf >
.	.	4b-\)) 4bb-	.	.
[2A-\ 2e-	8r	2cc-\	.	] p
.	(8ccc/L	.	.	.
.	8bb-/	.	.	.
.	8aa-/J	.	.	.
=88	=88	=88	=88	=88
*^	*	*	*	*
8dn/L	2A-\]	8.gg/L	[1b-	.	.
8c/	.	.	.	.	.
.	.	16ff/Jk)	.	.	.
8d/	.	4ff/	.	.	.
[8f/J	.	.	.	.	.
4f/]	[2G\ 2B-	8r	.	.	.
.	.	(8ee-/L	.	.	.
[4e-/	.	8ff/	.	.	.
.	.	8gg/J	.	.	.
!!LO:LB:g=original	!	!	!	!	!
=89	=89	=89	=89	=89	=89
8e-/L]	2G\]	4bb-/)	2b-\]	.	.
8B-/	.	.	.	.	.
8c/	.	4bb-/	.	.	.
8e-/J	.	.	.	.	.
[2F\ 2c 2e-	2ryy	8cc:/L	(4b-:\	.	.
.	.	(8aa-/	.	.	.
.	.	8gg/	[4a-\)	.	.
.	.	8ff/J	.	.	.
=90	=90	=90	=90	=90	=90
8B-/L	2F\]	8.ee-/L	2a-\]	.	.
8An/	.	.	.	.	.
.	.	16dd/Jk)	.	.	.
N[8B-/	.	4dd/	.	.	.
8f/J	.	.	.	.	.
[2B-/N]	[2E-\	8r	[2g\	.	.
.	.	(8dd/L	.	.	.
.	.	8ee-/	.	.	.
.	.	8ff/J	.	.	.
=91	=91	=91	=91	=91	=91
8B-/L]	2E-\]	4gg/)	2g\]	.	.
8e-/	.	.	.	.	.
8d/	.	4gg/	.	.	.
8c/J	.	.	.	.	.
2F:\ 2c:\	2ryy	8r	2g:\ 2a-: 2cc:	.	.
.	.	(8gg/L	.	.	.
.	.	8ff/	.	.	.
.	.	8ee-/J)	.	.	.
!!LO:LB:g=original	!	!	!	!	!
=92	=92	=92	=92	=92	=92
8F/L	2GG\	(8.ee-:/L	2f:\ 2g:	.	<
8G/	.	.	.	.	.
.	.	16dd/Jk)	.	.	.
8An/	.	4dd/	.	.	.
8Bn/J	.	.	.	.	.
2EE-/ 2E-	2ryy	8r	2c\ 2g	.	.
.	.	(8cc/L	.	.	.
.	.	8dd/	.	.	.
.	.	8ee-/J	.	.	.
*v	*v	*	*	*	*
=93	=93	=93	=93	=93
2FF/ 2F	4cc:/)	2c:\ 2e-: 2a-:	.	.
.	4cc/	.	.	.
2GG/ 2E- 2G	8r	2c\ 2g	.	.
.	(8cc/L	.	.	.
.	8dd/	.	.	.
.	8ee-/J	.	.	.
=94	=94	=94	=94	=94
2GG#X/ 2D 2F#X	4cc/)	2c\ 2f#X	.	.
.	4cc/	.	.	.
2AAn::/ 2D:: 2F#::	4dd::/	2c::\ 2d:: 2f#:: 2cc::	.	.
.	[4dd/	.	.	.
=95	=95	=95	=95	=95
!	!	!	!	!LO:HP:t=dim.
1BBn:: 1Fn:: 1G::	4g::/ 4dd::]	1d::	.	>
.	2g/	.	.	.
.	[4g/	.	.	.
*	*v	*v	*	*
!!LO:LB:g=original	!	!	!
=96	=96	=96	=96
4r	2G:/ 2c: 2e-: 2g:]	.	p
(4CC/	.	.	.
4A-\	2c:/ 2d: 2f: 2cc:	.	.
4C/)	.	.	.
=97	=97	=97	=97
*	*^	*	*
4r	2G:/ 2c: 2e-: 2g:	2ryy	.	.
(4CC/	.	.	.	.
4A-\	2b-/	(4c\ 4e-	.	.
4BB-/)	.	4d\) 4f	.	.
=98	=98	=98	=98	=98
4EE-/	4e-/ 4g	2ryy	.	.
4GG/	4B-/ 4e-	.	.	.
2FF/ 2BB-	2A-:/ 2B-: 2a-:	(>4e-:\	.	.
.	.	4d\)	.	.
*	*v	*v	*	*
=99	=99	=99	=99
4EE-::/ 4BB-::	4G::/ 4B-:: 4e-:: 4g::	.	<
4CC::/ 4GG:: 4C::	4E-::/ 4G:: 4c:: 4e-::	.	.
2BBB-::/ 2FF:: 2BB-::	2A-::/ 2d:: 2f:: 2a-::	.	sf
=100	=100	=100	=100
(4FFF/ 4FF	2A-:/ 2c: 2f: 2a-:	.	p
4C/	.	.	.
4B-\	2c:/ 2en: 2a-: 2cc:	.	.
4C/)	.	.	.
!!LO:LB:g=original	!	!	!
=101	=101	=101	=101
(4FF/	2A-:/ 2c: 2f: 2a-:	.	.
4C/	.	.	.
.	(>8qee-X/	.	.
4B-\	2en:/) 2a-: 2dd-X:	.	.
4C/)	.	.	.
=102	=102	=102	=102
4FF/	4A-:/ 4c: 4f: 4a-:	.	.
4AA-:/ 4F:	4c:/ 4f: 4cc:	.	.
4BB-:\ 4A-:	2d:/ 2f: 2b-: 2dd:	.	.
[<4B-\	.	.	.
=103	=103	=103	=103
4B-\] 4a->	(>2g:/ 2b-: 2dd: 2gg:	.	pp
[4BB-/	.	.	.
4EE-:/ 4BB-:] 4G:	4e-/) 4ee-	.	.
[4BB-^/	4r	.	.
=104	=104	=104	=104
!	!LO:TX:b:i:t=morendo	!	!
4BB-\] 4A-	2G<:/ 2B-<: 2d: 2g:	.	.
4BBB-/	.	.	.
4EEE-/ 4EE-	4G/ 4e-	.	.
4r	4r	.	.
=105	=105	=105	=105
4EEE-\ 4EE-	4BB-</ 4E-< 4G<	.	.
4r	4r<	.	.
2EEE-;<\ 2EE-	2BB-<;>/ 2E-< 2G<	.	ppp
==	==	==	==
*-	*-	*-	*-
!!!system-decoration: {(s1,s2)}
!!!RDF**kern: > = above
!!!RDF**kern: < = below
!!!RDF**kern: N = linked
!!!ENC: Andrzej Gręziak
!!!END: 2022-11-29
!!!ENC: Natalia Wrzos
!!!END: 2022-12-06
